X: 33195
T: Promise Of Spring, The
R: jig
M: 6/8
K: Gmajor
|:e|dBG AGE|GBd g2 e|dBG AGA|BGE E2 e|
dBG AGE|GBd gba|gfe dBA|BGG G2:|
|:a|bag agf|gfe def|gfe edB|dBA A2 a|
bag agf|gfe def|gfe dBA|BGG G2:|

